X:1
T:Jerusalem Surge
T:Heinrich Isaac edit BMarble
T:Jerusalem Surge
T:Copyright © 2015 by CPDL.  This edition can be fully distributed, duplicated, performed, and recorded. 
T:Copyright © 2015 by CPDL.  This edition can be fully distributed, duplicated, performed, and recorded. 
T:Copyright © 2015 by CPDL.  This edition can be fully distributed, duplicated, performed, and recorded. 
T:Copyright © 2015 by CPDL.  This edition can be fully distributed, duplicated, performed, and recorded. 
C:Heinrich Isaac
C:edit BMarble
Z:Copyright © 2015 by CPDL.  This edition can be fully distributed, duplicated, performed, and recorded.
Z:
%%score [ 1 2 3 4 ]
L:1/8
M:6/2
K:F
V:1 treble nm="Soprano" snm="S."
V:2 treble nm="Alto" snm="A."
V:3 treble-8 transpose=-12 nm="Tenor" snm="T."
V:4 bass nm="Bass" snm="B."
V:1
"^Communion, Advent II:  Baruch 5:5, 4:36Arise, O Jerusalem, and stand on high, behold the joy that comes to you from your God." z24 || %1
w: |
[M:4/2][Q:1/2=92] B8 d8 | c4 B8 A4 | B8 z8 | B8 (A8 | B8 c8 | d8) (c8 | A8) (B8 | c8 A4) B4- | %9
w: sur- *||ge,|et sta|_ _|* in|_ ex-|* * cel-|
 (B2 A2 G8 =F4) | G8 z8 | B8 (G8 | F8 B8 | F8) G4 B4- | (B2 A2 G8 ^F4) | G8 z8 | G8 (G8 | B8) G8 | %18
w: |so,|et vi-||* de, vi-||de|in- cun-|* di-|
 (G6 A2 B4) c4- | c4 B4 c4 d4- | (d2 c2) (B8 A4) | B8 z8 | B8 (c8 | d8) (c8 | A8) (B8 | c8 A8 | %26
w: ta- * * tem,|_ in- cun- di-|* * ta- *|tem,|quae ve-|* ni-|* et|_ _|
 B8) G8 | F8 B8 | F8 G8 | F8 G8 | (F8 D8 | F8) B8 | (c8 B8) | (A8 B8) | G8 A4 B4- | B2 A2 G8 ^F4 | %36
w: * ti-||||bi _|_ a|De- *|o _|tu- o, tu-||
 G16 |] %37
w: o.|
V:2
 z24 ||[M:4/2] G16 | (E6 D2 F8) | z8 F8 | (E8 F8) | G8 A8 | (G8 E8) | F8 G8 | E4 F6 E2 D4- | %9
w: |sur-|ge, _ _|et|sta _|in ex-|cel- *|so, in|ex- cel- * *|
 D4 !courtesy!^C4 D8 | z8 F8 | (D8 C8) | F8 D8- | D4 F6 E2 D4- | D4 C4 D8 | D8 z8 | %16
w: * * so,|et|vi- *|de, et|_ vi- * *||de|
 D4 (B,4 G,4) (C4 | B,4) D12 | D8 z8 | z4 G4 E4 G4 | (D6 E2) F8- | F8 z8 | F8 G4 A4 | (D8 E8 | %24
w: in- cun- * di-|* ta-|tem,|in- cu- di-|ta- * tem,|_|quae ve- ni-|et, _|
 F8) B,8 | (A,4 C4 D8 | B,8) C8 | A,8 z4 B,4- | (B,2 A,2 F,4) C8 | F,4 (F8 E4) | F16 | z8 z4 F4- | %32
w: _ quae|ve- * *|* ni-|et, ti-|* * * bi|a De- *|o,|De-|
 (F2 G2 A4) F8- | F8 G8 | (D6 E2 F4) G4 | (D4 _E4 D8) | D16 |] %37
w: * * * o,|_ a|De- * * o|tu- * *|o.|
V:3
 (G2 B2 A2) (G2 B2) (B2 A2 c2 B2) (A2 G4) ||[M:4/2] d8 B8 | A4 B4 c8 | B8 A8 | B8 c4 d4- | d8 =e8 | %6
w: Je- * * ru- * sa- * * * lem _|sur- *||ge, et|sta _ _|_ _|
 d8 z8 | z4 c4 d8 | A4 (c8 B4 | G8) A8 | z4 G4 A8 | G12 E4 | D4 A4 G4 B4 | A8 G4 F4 | G8 A8 | G16 | %16
w: |in _|ex- cel- *|* so,|et vi-||de, et vi- *|||de|
 z8 z4 G4- | G2 F2 G6 A2 B4- | B2 A2 B2 c2 d4 _e4 | d8 c4 B4 | G4 B4 c8 | B16- | B8 z8 | (B8 c8 | %24
w: in|_ _ cun- * *|* * * * * di-|ta- * *||tem,|_|quae _|
 d8) z4 (d4 | e8 f8) | (d8 e8) | d8 z4 d4 | B4 f8 e4 | f8 c8 | z8 z4 f4- | (f2 e2 d2 c2 d8) | %32
w: _ ve-||ni- *|et, quae|ve- ni- at|ti- bi|a|_ _ _ _ _|
 _e8 d8- | d16 | z4 B4 c4 d4- | (d2 B2 c4) A8 | G16 |] %37
w: De- o.|_|a De- o|_ _ _ tu-|o.|
V:4
 z24 ||[M:4/2] G,16 | A,4 G,4 F,8 | B,,8 z4 F,4 | G,8 F,8 | B,8 A,4 C4 | G,8 z4 A,4 | F,4 A,4 G,8 | %8
w: |sur-||ge, et|sta _|_ _ _|* in|ex- cel- so,|
 z4 F,8 G,4 | (=E,8 D,8) | =E,4 (G,8 F,4 | G,8) C,8 | (D,8 G,8 | D,8) z4 D,4 | (_E,8 D,8) | %15
w: in ex-|cel- *|so, et _|_ vi-|de, _|_ vi-|de _|
 z4 G,4 =E,4 C,4 | G,8 C,8 | z4 G,12 | G,12 C,4 | G,8 A,4 G,4 | B,4 G,4 F,8 | B,,16 | z4 B,8 A,4 | %23
w: in- cun- di-|ta- tem,|in-|cun- di-|ta- * *||tem,|quae ve-|
 B,8 (A,8 | D,8) z4 B,4 | A,8 D,8 | G,8 (C,8 | D,8) B,,8- | B,,8 z8 | z8 z4 C,4 | D,8 B,,8 | %31
w: ni- et.|_ quae|ve- ni-|et ti-|* bi,|_|ti-|* bi|
 (F,6 E,2 D,2 C,2) B,,4- | (B,,4 A,,4) B,,8 | D,8 G,8- | (G,4 B,4) A,4 G,4- | (G,4 C,4 D,8) | %36
w: a _ _ _ De-|* * o,|a De-|* * o tu-||
 G,16 |] %37
w: o.|

